X:1     %Music
T:Darby Kelly
B:Singing Together,  Summer 1968, BBC Publications
F:http://www.folkinfo.org/songs
M:6/8     %Meter
L:1/8     %
K:G
D |G2 B B2 D |G2 B B2 D |G2 B (BA)B | c2 A A2
w:My grand-sire beat the drum com-plete, His name was Dar-*by Kel-ly O. 
 D |G2 B (BA)G |E2 c B2 E |D2 B B2 A | A2 G G2 
w:No lad so true_ at rat-tat-too, At roll-call or re-veill-ez O. 
B |A2 D D2 B |A2 D D2 B |A2 d (d^c)d | d2 D (D3|(D3)D2)
w:When Marl-bro's name first rose to fame So proud he rolled_ the Point of War,__ 
 c |B2 A G2 F |E2 G (GF)E | D2 B B2 A |A2 G G2 
w:At Blen-heim he and Ra-mil-lies_ Fired all our champ-ions to the core, 
B |A2 D D2 B |A2 D D2 B | A2 d (d^c)d |d2 D (D3|(D3)D2) 
w:And O, his wrist had such a twist, When  home they marched_ with row-dow-dow__ 
c |B2 A G2 F | E2 G (GF)E |D2 B HB2 A |A2 G G z2 |]
w:With one great shout the boys came out_ The girls they gazed, you don't know how 